X: 10821
M: 6/8
L: 1/8
K: F
u(c/B/) |\
{Bc}B>AB {cd}c>Bc | {de}d>Bd {ef}e>de | f>ed gdc | B3 G2 "^Fine."|]
uc |\
(A/B/)cF (A/B/)cF | (A/B/)cF (A/B/)cF | (A/B/)cF fcB | A3 (.F2.c) |\
(B/c/)dG (B/c/)dG | (B/c/)dG (B/c/)dG | (B/c/)dG gdc | B3 (.G2.B) |
(A/B/)cF (A/B/)cF | (A/B/)cF (A/B/)cF | (A/B/)cF fcB | A3 FGA |\
{Bc}B>AB {cd}c>Bc | {de}d>Bd {ef}e>de | f>ed gdc | B3 G2 |]
uc |\
{Bc}B>AB {cd}c>Bc | {de}d>Bd {ef}e>de | f>ed gdc B3 G2 |]
uc |\
f/g/a/g/f/e/ f/g/a/g/f/e/ | f/g/a/g/f/e/ f/g/a/g/f/e/ | f/g/a/g/f/e/ fcf | A3 F2d |\
g/a/b/a/g/^f/ g/a/b/a/g/^f/ | g/a/b/a/g/^f/ g/a/b/a/g/^f/ | g/a/b/a/g/^f/ gdc | B3 G2c |
f/g/a/g/f/e/ f/g/a/g/f/e/ | f/g/a/g/f/e/ f/g/a/g/f/e/ | f/g/a/g/f/e/  f(cf) | A3 FGA |\
{Bc}B>AB {cd}c>Bc | {de}d>Bd {ef}e>de | f>ed gdc | B3 G3 "_D.C.":|


